!!!OTL: ES WOLLT EIN MAEGDLEIN SEHR FRUEH AUFSTEHN
!!!ARE: Europa, Mitteleuropa, Deutschland
!!!SCT: E0096A
!!!YEM: Copyright 1995, estate of Helmut Schaffrath.
**kern
*ICvox
*Ivox
*M3/4
*k[b-]
*F:
{8c
8f
8a
=1
8g
16a
16g
8f
16a
16cc
16cc
16b-
16b-
16a
=2
4g
8r}
{16cc
16b-
8a
8cc
=3
16cc
16b-
16b-
16a
8b-
16b-
16a
8g
8b-
=4
16b-
16a
16a
16g
8a}
{16cc
16b-
8a
8g
=5
4f
8r}
{16cc
16b-
8a
8cc
=6
16cc
16b-
16b-
16a
8b-
16b-
16a
8g
8b-
=7
16b-
16a
16a
16g
8a}
{16cc
16b-
8a
8g
=8
4f
8r}
==
!!!AGN: erzaehlendes Volks - Lied, Sage, Liebe, Leid, Tod, Ballade ?
!!!ONB: ESAC (Essen Associative Code) Database: ERK1
!!!AMT: simple triple
!!!AIN: vox
!!!EED: Helmut Schaffrath
!!!EEV: 1.0
*-
